X:501
T:50. MAURICE MANLEY'S POLKA
R:Polka
O:Ireland
M:2/4
L:1/8
K:G
P:A
G|\
EA AB|cd eg|GG/2F/2 GA|GE ED|
EA AB|cd e>f|g/2f/2e dB|A2 A ::
P:B
z|\
ea a>b|ag ef|gg/2f/2 ga|ge ed|
ea a>b|ag e>f|g/2f/2e dB|A2 A:|
